X: 1
T: Fair Jenny's Jig
C: Peter Barnes
R: jig
N: Q: 3/8=120
M: 6/8
L: 1/8
Z: Contributed 2018-05-24 18:50:35 by Ross sharp11@gmail.com
K: D
"(A)"A |\
"D"f2f fgf | "A"ecA ecA | "G"Bcd "A"ecA | "G/B"Bcd "A/C#"efg |
"D"f2f fgf | "A"ecA ecA | "G"Bcd "A"ecA | "A7"ABc "D"d2     :|
|:"(D7)"=c |\
"G"B2B B=cB | G2B B=cB  | "D"ADD dDD    | cDD =cDD  |
"G"B2B B=cB | G2B B=cB  | "A"A2A "A7"ABc|"D"dAF D2 :|
w: v5
|x|x|x|x|"/G"B2 "/A"c2 "/B"d2 | "/C#"e2 "/D"^f2 "/E"g2 |

